rospo-icon-theme-classic-common/16x16/apps/fofix.svg

<svg height="16" width="16" xmlns="http://www.w3.org/2000/svg"><path d="m5.0486977-.00000009c-.2176861.26727753-.2073741.48914794-.4568764.75494427-.8341154.88873392-.699449 1.45809362-.038561 2.07896512.1143512.1074273-.2565184.4903879-.3830816.9908217.2471819.200293.3276728.5476194.5536154.7799489.2461137-.3030203 1.0113883-.9862478 1.1827984-1.1687051 0 0 .3627817-.5712247-.089185-1.1085558-.3277971-.3246651-.7687098-1.1257667-.7498054-1.87758185.0211211-.04928645-.0253508-.32248248-.0189044-.44983724zm2.2578998.94464299c-.3136974 0-.3466956.1122566-.2370448.7979723.1589237.9938559-.4161879 1.5712785-1.1908072 2.1439793-.3232309.2389746-.9793823 1.044491-.9793823 1.1506818 0 .092503-1.4917485.4787592-1.0593459 1.0337828.063987.082132-.7465266.634027.1744587.2307861.7688544-.3366329 1.1979641 1.6552722 1.4918951 2.225717l.5343287 1.0373636-.4748718.9262742c-.691887 1.350389-.4913108 1.193224-1.7940794 2.513391-.2033028.206017-.1699733.460963-.3303703.355404-1.1429632-.752198-.100213.337696-.1715006.436423-.5191042-1.086404-.3673768.611641-.3679776.612482.4956087.54439 1.4191394.632945 2.1453897.612509 1.2108774.0054 2.2684532-.415064 2.6251064-1.021409 1.0409883-1.780008 1.7017406-2.430459 2.1258534-2.267712.1851218.07104.6662814.755377 1.2995254 1.635102.633242.879725 1.460775 1.76457 1.570815 1.73261.357308-.103769 1.319634-1.448572 1.322638-2.31064.0022-.62204.09965-1.62758-.246529-1.966042-.257789-.252042-.818618-.384148-1.0621-.739812-.425383-.6213723-.632653-.430173-.315774-1.0979457.181376-.3822231.377235-.6273071.85183-1.0162022 1.171241-.9597446 1.954012-2.6934357 1.694108-3.6347301-.106936-.3872917-.387195-.88026-.549774-1.095256-.277866-.3674519-.295994-.3461734-.301978.3590877-.0052.6173389-.96665.830648-1.29929.8306468-.03336 0-.06886.00651-.106396.017993-.291453.459642-.531058.7487111-.716611 1.090979-.903038 1.2688255-1.398739 1.8095763-1.736019 1.8095763-.338637 0-1.3031241-.8583483-2.223597-2.2409912-.071435-.107303-.1328783-.2071471-.1838464-.3004134-.0252988-.0461466-.0420687-.0872307-.0602392-.1290835-.00733-.015609-.015245-.031744-.021906-.04694-.012421-.028355-.029821-.059877-.039899-.086838-.026905-.071271-.042696-.1357611-.053198-.1979282-.0003212-.002-.001-.00413-.00156-.00626-.0008011-.0052-.0032-.011287-.00393-.016431-.00108-.00761.000761-.013667 0-.021121-.00572-.055343-.00532-.1079817.00312-.1564652.000721-.00423-.0000805-.00912.0008011-.013298.010306-.052761.031788-.1009019.059457-.1462951.0008011-.00132.00168-.00256.00236-.00393.00252-.00401.0036-.00858.00626-.012517.031371-.047057.074166-.089875.1251721-.1298662.00152-.0012.00252-.00272.00393-.00393.0004006-.0003196.00116-.0004807.00156-.0008011.1089686-.083091.2607321-.1524528.4568782-.2120103.046358.015786.089474.028892.1392543.047722h.6679913c.024109-.0777019.0273975-.1709269.0133061-.2917991-.0695576-.5957674-1.3002397-2.4338156-1.788012-2.4338156zm4.4078715.0623866c-.270588 0-1.8190828 1.6713829-1.7628588 2.3410751.0516.6146252.9921018.4372142 1.2598268.4046522.237598-.028896.796308.067826.914882-.1555521.07985-.1504293-.352286-1.3272665-.273378-1.6396494.223125-.8833131.213155-.9505258-.138472-.9505258z" fill="#dc730e"/><g fill="#e4e4e4"><path d="m9.6128751 11.000464c-.5351687.02996-1.8246743 1.456958-2.8806659 3.217823-.3031792.505553-.5105043.818589-.7059867 1.027757-.080122.373763.012215.765682.432565.753687h2.8721999 2.8722006c.763242-.09504.866931-.621246.762927-1.071513-.370588-.844591-1.190135-1.474457-1.647528-2.090176-.685194-.928282-1.4088999-1.749409-1.6092109-1.824369-.02868-.01073-.06082-.01521-.0965-.01321z"/><path d="m14.084689 7.0000032c-.114006.094038-.228072.1884983-.354054.278344-.546528.3897608-1.164104 1.0219746-1.372972 1.4050486-.364907.6692589-.360127.7219197.129729 1.3446752.280387.356455.752688.855284 1.049548 1.107887.293008.249322.443968.501509.503604.864042v-2.1514802-2.6603405c.02343-.053911.03981-.1011201.05946-.1513249-.0047-.01375-.01036-.023504-.01532-.036854z"/><path d="m7.2405262 4.6025517c.923198 1.5423777 2.4427016 3.3974483 2.7823418 3.3974483.338279 0 1.011152-.7846905 1.91688-2.2000938.224477-.460539.503941-1.0036032.892139-1.6598886.236308-.3995027.275814-1.1561628-.228331-1.1397551h-2.463776-2.463777c-.969332.161095-.6834808 1.1779269-.4354768 1.6022892z"/><path d="m2.0871558 1.9999998c-.7015356.00197-1.0425945.8463658-1.0425945.8463658-.009-.052257-.0956012 3.7395847 0 6.3575088.095601 2.6179236 0 5.7585426 0 5.7585426.6347881 1.707162 1.9764073 1.016728 3.3143541.0025.153714-.206556.4106673-.482853.8478097-.911471 1.4006108-1.373301 2.5388893-2.848247 3.282739-4.2529878l.5105362-.9635848-.5744587-1.0791157c-.3160061-.5934336-1.0377581-1.6354808-1.6039409-2.3153278-.0729835-.0876354-.1187687-.1546373-.1875611-.2400752-1.1942857-1.4005118-2.5721421-3.0842831-4.5468838-3.2023549z"/></g></svg>

<svg xmlns="http://www.w3.org/2000/svg" width="16" height="16" version="1">
 <path style="fill:#dc730e" d="M 5.0486977,-9.1872685e-8 C 4.8310116,0.26727744 4.8413236,0.48914785 4.5918213,0.75494418 3.7577059,1.6436781 3.8923723,2.2130378 4.5532603,2.8339093 4.6676115,2.9413366 4.2967419,3.3242972 4.1701787,3.824731 4.4173606,4.025024 4.4978515,4.3723504 4.7237941,4.6046799 4.9699078,4.3016596 5.7351824,3.6184321 5.9065925,3.4359748 c 0,0 0.3627817,-0.5712247 -0.089185,-1.1085558 C 5.4896104,2.0027539 5.0486977,1.2016523 5.0676021,0.44983715 5.0887232,0.4005507 5.0422513,0.12735467 5.0486977,-9.1872685e-8 Z M 7.3065975,0.9446429 c -0.3136974,0 -0.3466956,0.1122566 -0.2370448,0.7979723 0.1589237,0.9938559 -0.4161879,1.5712785 -1.1908072,2.1439793 -0.3232309,0.2389746 -0.9793823,1.044491 -0.9793823,1.1506818 0,0.092503 -1.4917485,0.4787592 -1.0593459,1.0337828 0.063987,0.082132 -0.7465266,0.634027 0.1744587,0.2307861 0.7688544,-0.3366329 1.1979641,1.6552722 1.4918951,2.225717 L 6.0406998,9.5649258 5.565828,10.4912 C 4.873941,11.841589 5.0745172,11.684424 3.7717486,13.004591 3.5684458,13.210608 3.6017753,13.465554 3.4413783,13.359995 2.2984151,12.607797 3.3411653,13.697691 3.2698777,13.796418 2.7507735,12.710014 2.9025009,14.408059 2.9019001,14.4089 3.3975088,14.95329 4.3210395,15.041845 5.0472898,15.021409 6.2581672,15.026809 7.315743,14.606345 7.6723962,14 c 1.0409883,-1.780008 1.7017406,-2.430459 2.1258534,-2.267712 0.1851218,0.07104 0.6662814,0.755377 1.2995254,1.635102 0.633242,0.879725 1.460775,1.76457 1.570815,1.73261 0.357308,-0.103769 1.319634,-1.448572 1.322638,-2.31064 0.0022,-0.62204 0.09965,-1.62758 -0.246529,-1.966042 C 13.48691,10.571276 12.926081,10.43917 12.682599,10.083506 12.257216,9.4621337 12.049946,9.653333 12.366825,8.9855603 12.548201,8.6033372 12.74406,8.3582532 13.218655,7.9693581 14.389896,7.0096135 15.172667,5.2759224 14.912763,4.334628 14.805827,3.9473363 14.525568,3.454368 14.362989,3.239372 14.085123,2.8719201 14.066995,2.8931986 14.061011,3.5984597 c -0.0052,0.6173389 -0.96665,0.830648 -1.29929,0.8306468 -0.03336,0 -0.06886,0.00651 -0.106396,0.017993 -0.291453,0.459642 -0.531058,0.7487111 -0.716611,1.090979 -0.903038,1.2688255 -1.398739,1.8095763 -1.736019,1.8095763 -0.338637,0 -1.3031241,-0.8583483 -2.223597,-2.2409912 C 7.907663,4.9993606 7.8462197,4.8995165 7.7952516,4.8062502 7.7699528,4.7601036 7.7531829,4.7190195 7.7350124,4.6771667 c -0.00733,-0.015609 -0.015245,-0.031744 -0.021906,-0.04694 -0.012421,-0.028355 -0.029821,-0.059877 -0.039899,-0.086838 -0.026905,-0.071271 -0.042696,-0.1357611 -0.053198,-0.1979282 -3.212e-4,-0.002 -10e-4,-0.00413 -0.00156,-0.00626 -8.011e-4,-0.0052 -0.0032,-0.011287 -0.00393,-0.016431 -0.00108,-0.00761 7.61e-4,-0.013667 0,-0.021121 -0.00572,-0.055343 -0.00532,-0.1079817 0.00312,-0.1564652 7.21e-4,-0.00423 -8.05e-5,-0.00912 8.011e-4,-0.013298 0.010306,-0.052761 0.031788,-0.1009019 0.059457,-0.1462951 8.011e-4,-0.00132 0.00168,-0.00256 0.00236,-0.00393 0.00252,-0.00401 0.0036,-0.00858 0.00626,-0.012517 0.031371,-0.047057 0.074166,-0.089875 0.1251721,-0.1298662 0.00152,-0.0012 0.00252,-0.00272 0.00393,-0.00393 4.006e-4,-3.196e-4 0.00116,-4.807e-4 0.00156,-8.011e-4 0.1089686,-0.083091 0.2607321,-0.1524528 0.4568782,-0.2120103 0.046358,0.015786 0.089474,0.028892 0.1392543,0.047722 l 0.6679913,0 C 9.1054124,3.5925557 9.1087009,3.4993307 9.0946095,3.3784585 9.0250519,2.7826911 7.7943698,0.9446429 7.3065975,0.9446429 Z m 4.4078715,0.0623866 c -0.270588,0 -1.8190828,1.6713829 -1.7628588,2.3410751 0.0516,0.6146252 0.9921018,0.4372142 1.2598268,0.4046522 0.237598,-0.028896 0.796308,0.067826 0.914882,-0.1555521 0.07985,-0.1504293 -0.352286,-1.3272665 -0.273378,-1.6396494 0.223125,-0.8833131 0.213155,-0.9505258 -0.138472,-0.9505258 z"/>
 <path style="fill:#cccccc" d="m 9.6128751,11.000464 c -0.5351687,0.02996 -1.8246743,1.456958 -2.8806659,3.217823 -0.3031792,0.505553 -0.5105043,0.818589 -0.7059867,1.027757 -0.080122,0.373763 0.012215,0.765682 0.432565,0.753687 l 2.8721999,0 2.8722006,0 c 0.763242,-0.09504 0.866931,-0.621246 0.762927,-1.071513 -0.370588,-0.844591 -1.190135,-1.474457 -1.647528,-2.090176 -0.685194,-0.928282 -1.4088999,-1.749409 -1.6092109,-1.824369 -0.02868,-0.01073 -0.06082,-0.01521 -0.0965,-0.01321 z"/>
 <path style="fill:#cccccc" d="m 14.084689,7.0000032 c -0.114006,0.094038 -0.228072,0.1884983 -0.354054,0.278344 -0.546528,0.3897608 -1.164104,1.0219746 -1.372972,1.4050486 -0.364907,0.6692589 -0.360127,0.7219197 0.129729,1.3446752 0.280387,0.356455 0.752688,0.855284 1.049548,1.107887 0.293008,0.249322 0.443968,0.501509 0.503604,0.864042 l 0,-2.1514802 0,-2.6603405 c 0.02343,-0.053911 0.03981,-0.1011201 0.05946,-0.1513249 -0.0047,-0.01375 -0.01036,-0.023504 -0.01532,-0.036854 z"/>
 <path style="fill:#cccccc" d="M 7.2405262,4.6025517 C 8.1637242,6.1449294 9.6832278,8 10.022868,8 10.361147,8 11.03402,7.2153095 11.939748,5.7999062 12.164225,5.3393672 12.443689,4.796303 12.831887,4.1400176 13.068195,3.7405149 13.107701,2.9838548 12.603556,3.0002625 l -2.463776,0 -2.463777,0 C 6.706671,3.1613575 6.9925222,4.1781894 7.2405262,4.6025517 Z"/>
 <path style="fill:#cccccc" d="m 2.0871558,1.9999998 c -0.7015356,0.00197 -1.0425945,0.8463658 -1.0425945,0.8463658 -0.009,-0.052257 -0.0956012,3.7395847 0,6.3575088 0.095601,2.6179236 0,5.7585426 0,5.7585426 0.6347881,1.707162 1.9764073,1.016728 3.3143541,0.0025 0.153714,-0.206556 0.4106673,-0.482853 0.8478097,-0.911471 1.4006108,-1.373301 2.5388893,-2.848247 3.282739,-4.2529878 L 9.0000003,8.8368734 8.4255416,7.7577577 C 8.1095355,7.1643241 7.3877835,6.1222769 6.8216007,5.4424299 6.7486172,5.3547945 6.702832,5.2877926 6.6340396,5.2023547 5.4397539,3.8018429 4.0618975,2.1180716 2.0871558,1.9999998 Z"/>
</svg>
